icons/numix/32x32/mimetypes/application-vnd.oasis.opendocument.text-web.svg

<?xml version="1.0" encoding="UTF-8" standalone="no"?>
<svg
   xmlns:dc="http://purl.org/dc/elements/1.1/"
   xmlns:cc="http://creativecommons.org/ns#"
   xmlns:rdf="http://www.w3.org/1999/02/22-rdf-syntax-ns#"
   xmlns:svg="http://www.w3.org/2000/svg"
   xmlns="http://www.w3.org/2000/svg"
   xmlns:sodipodi="http://sodipodi.sourceforge.net/DTD/sodipodi-0.dtd"
   xmlns:inkscape="http://www.inkscape.org/namespaces/inkscape"
   width="32"
   height="32"
   viewBox="0 0 32 32"
   id="svg2"
   version="1.1"
   inkscape:version="0.48.5 r10040"
   sodipodi:docname="application-vnd.oasis.opendocument.text-web.svg">
  <metadata
     id="metadata44">
    <rdf:RDF>
      <cc:Work
         rdf:about="">
        <dc:format>image/svg+xml</dc:format>
        <dc:type
           rdf:resource="http://purl.org/dc/dcmitype/StillImage" />
      </cc:Work>
    </rdf:RDF>
  </metadata>
  <defs
     id="defs42" />
  <sodipodi:namedview
     pagecolor="#ffffff"
     bordercolor="#666666"
     borderopacity="1"
     objecttolerance="10"
     gridtolerance="10"
     guidetolerance="10"
     inkscape:pageopacity="0"
     inkscape:pageshadow="2"
     inkscape:window-width="1280"
     inkscape:window-height="970"
     id="namedview40"
     showgrid="true"
     inkscape:zoom="83.4386"
     inkscape:cx="17.954967"
     inkscape:cy="1.57934"
     inkscape:window-x="0"
     inkscape:window-y="0"
     inkscape:window-maximized="1"
     inkscape:current-layer="svg2">
    <inkscape:grid
       type="xygrid"
       id="grid2998" />
  </sodipodi:namedview>
  <path
     style="fill:#7099c3;fill-opacity:1"
     d="M 5.335888,2.977e-4 C 4.648414,3.127e-4 4,0.6767886 4,1.3940318 L 4,30.606268 C 4,31.282757 4.687474,32 5.335888,32 l 21.327332,0 c 0.648414,0 1.335888,-0.717243 1.335888,-1.393732 L 28,9 19,4e-7 z"
     id="path4-1"
     inkscape:connector-curvature="0"
     sodipodi:nodetypes="ssssssccs" />
  <path
     style="fill:#000000;fill-opacity:0.19599998"
     d="m 21,9 7,7 0,-7 z"
     id="path6-4"
     inkscape:connector-curvature="0"
     sodipodi:nodetypes="cccc" />
  <path
     style="fill:#ffffff;fill-opacity:0.39200003"
     d="M 19.000306,2.977e-4 27.9919,9 20.378638,9 C 19.705687,9 19.000306,8.286511 19.000306,7.61356 z"
     id="path8-6"
     inkscape:connector-curvature="0"
     sodipodi:nodetypes="ccssc" />
  <path
     style="fill:#ffffff"
     inkscape:connector-curvature="0"
     id="path12"
     d="m 11.000589,14 0,1 L 21,15 21,14 z" />
  <path
     style="fill:#ffffff"
     inkscape:connector-curvature="0"
     id="path14"
     d="m 10.555433,16.335432 0,1.113641 11.105154,0 0,-1.113641 z" />
  <path
     style="fill:#ffffff"
     inkscape:connector-curvature="0"
     id="path16"
     d="m 11,19 0,1 9.999411,0 0,-1 z" />
  <path
     style="fill:#ffffff"
     inkscape:connector-curvature="0"
     id="path18"
     d="m 15.671477,11.339961 0,11.104584 0.872555,0 0,-11.104584 z" />
  <g
     style="fill:none;stroke:#ffffff"
     id="g20"
     transform="matrix(1.0182376,0,0,1.0181853,-0.183792,-1.4350832)">
    <g
       style="stroke-width:2"
       id="g22">
      <path
         d="m 20.440814,33.002083 c -1.998076,-6.001389 -1.998076,-12.002777 0,-18.004166"
         transform="matrix(0.54545,0,0,0.54545,2.90922,4.90928)"
         id="path24"
         inkscape:connector-curvature="0" />
      <path
         d="m 27.466306,33.002083 c 2.005237,-4.99877 2.005237,-12.002777 0,-18.004166"
         transform="matrix(0.54545,0,0,0.54545,2.90922,4.90928)"
         id="path26"
         inkscape:connector-curvature="0" />
    </g>
    <path
       style="stroke-width:1.82099998;stroke-linecap:round"
       d="m 33.055052,27.317092 c 0,5.026824 -4.074922,9.101746 -9.101746,9.101746 -5.026824,0 -9.101747,-4.074922 -9.101747,-9.101746 0,-5.026824 4.074923,-9.101747 9.101747,-9.101747 5.026824,0 9.101746,4.074923 9.101746,9.101747 z"
       transform="matrix(0.59913,0,0,0.59913,1.64887,1.63352)"
       id="path28"
       inkscape:connector-curvature="0" />
  </g>
  <path
     style="fill:#000000;fill-opacity:0.19599998"
     d="m 4,24 0,6.667969 C 4,31.316407 4.6875,32 5.332031,32 l 21.335938,0 C 27.3125,32 28,31.316407 28,30.667969 L 28,24 z"
     id="path3025"
     inkscape:connector-curvature="0" />
  <g
     style="fill:#ffffff"
     id="g3047"
     transform="matrix(1.0644405,0,0,1.0644405,-1.1244677,-0.81679182)">
    <path
       d="m 10.5,27.332031 c 0,0.25 0.01172,0.484375 0.02734,0.703125 0.02734,0.214844 0.07031,0.402344 0.132812,0.5625 0.06641,0.160156 0.160156,0.285156 0.277344,0.378906 0.121094,0.09375 0.277344,0.140626 0.476562,0.140626 0.195313,0 0.351563,-0.04688 0.46875,-0.140626 0.125,-0.09375 0.21875,-0.21875 0.28125,-0.378906 0.06641,-0.167968 0.109376,-0.355468 0.128907,-0.570312 0.02344,-0.214844 0.03906,-0.445313 0.03906,-0.695313 0,-0.246093 -0.01563,-0.476562 -0.03906,-0.691406 -0.01953,-0.222656 -0.0625,-0.410156 -0.128907,-0.570313 -0.0625,-0.160156 -0.152343,-0.285156 -0.273437,-0.378906 -0.117187,-0.09375 -0.277344,-0.140625 -0.476563,-0.140625 -0.199218,0 -0.355468,0.04687 -0.476562,0.140625 -0.117188,0.09375 -0.210938,0.222656 -0.277344,0.386719 -0.0625,0.160156 -0.105468,0.347656 -0.132812,0.5625 C 10.511719,26.855469 10.5,27.085938 10.5,27.332031 m -1.167969,0 c 0,-0.878906 0.183594,-1.542969 0.550781,-1.988281 0.367188,-0.453125 0.878907,-0.675781 1.53125,-0.675781 0.679688,0 1.195313,0.222656 1.550782,0.675781 0.355468,0.445312 0.53125,1.109375 0.53125,1.988281 0,0.882813 -0.179688,1.546875 -0.539063,2 C 12.59375,29.777344 12.085938,30 11.425781,30 c -0.679687,0 -1.199219,-0.222656 -1.558593,-0.667969 -0.355469,-0.453125 -0.535157,-1.117187 -0.535157,-2"
       id="path3049"
       inkscape:connector-curvature="0" />
    <path
       d="m 18.183594,24.78125 0,0.84375 -1.519532,0 0,4.265625 -1.160156,0 0,-4.265625 -1.519531,0 0,-0.84375 4.199219,0"
       id="path3051"
       inkscape:connector-curvature="0" />
    <path
       d="m 22.667969,24.78125 0,5.109375 -1.148438,0 0,-2.25 -1.53125,0 0,2.25 -1.148437,0 0,-5.109375 1.148437,0 0,2.015625 1.53125,0 0,-2.015625 1.148438,0"
       id="path3053"
       inkscape:connector-curvature="0" />
  </g>
</svg>

<svg width="32" xmlns="http://www.w3.org/2000/svg" height="32" viewBox="0 0 32 32" xmlns:xlink="http://www.w3.org/1999/xlink">
<path style="fill:#7099c3" d="M 5.332031 0.667969 C 4.648438 0.667969 4 1.3125 4 2 L 4 30 C 4 30.648438 4.6875 31.332031 5.332031 31.332031 L 26.667969 31.332031 C 27.3125 31.332031 28 30.648438 28 30 L 28 9.332031 L 19.332031 0.667969 Z "/>
<path style="fill:#000;fill-opacity:.196" d="M 19.332031 8 L 19.375 8.042969 L 19.480469 8 Z M 20.667969 9.332031 L 28 16.667969 L 28 9.332031 Z "/>
<path style="fill:#fff;fill-opacity:.392" d="M 19.332031 0.667969 L 28 9.332031 L 20.667969 9.332031 C 20.019531 9.332031 19.332031 8.648438 19.332031 8 Z "/>
<path style="fill:#000;fill-opacity:.196" d="M 4 23.332031 L 4 30 C 4 30.648438 4.6875 31.332031 5.332031 31.332031 L 26.667969 31.332031 C 27.3125 31.332031 28 30.648438 28 30 L 28 23.332031 Z "/>
<g style="fill:#fff">
<path d="M 11.089844 13.273438 L 11.089844 14.363281 L 20.910156 14.363281 L 20.910156 13.273438 Z "/>
<path d="M 10.546875 15.453125 L 10.546875 16.546875 L 21.453125 16.546875 L 21.453125 15.453125 Z "/>
<path d="M 11.089844 17.636719 L 11.089844 18.726562 L 20.910156 18.726562 L 20.910156 17.636719 Z "/>
<path d="M 15.453125 10.546875 L 15.453125 21.453125 L 16.546875 21.453125 L 16.546875 10.546875 Z "/>
</g>
<g style="stroke:#fff;fill:none">
<g style="stroke-width:2">
<path d="M 20.440814 33.002193 C 18.442738 27.000804 18.442738 20.999416 20.440814 14.998027 " transform="matrix(.54545 0 0 .54545 2.90922 2.90922)"/>
<path d="M 27.466306 33.002193 C 29.471543 28.003423 29.471543 20.999416 27.466306 14.998027 " transform="matrix(.54545 0 0 .54545 2.90922 2.90922)"/>
</g>
<path style="stroke-linecap:round;stroke-width:1.821" d="M 33.055052 27.317192 C 33.055052 32.344016 28.98013 36.418938 23.953306 36.418938 C 18.926482 36.418938 14.851559 32.344016 14.851559 27.317192 C 14.851559 22.290368 18.926482 18.215446 23.953306 18.215446 C 28.98013 18.215446 33.055052 22.290368 33.055052 27.317192 Z " transform="matrix(.59913 0 0 .59913 1.64887 -.36654)"/>
</g>
<g style="fill:#fff">
<path d="M 10.5 27.332031 C 10.5 27.582031 10.511719 27.816406 10.527344 28.035156 C 10.554688 28.25 10.597656 28.4375 10.660156 28.597656 C 10.726562 28.757812 10.820312 28.882812 10.9375 28.976562 C 11.058594 29.070312 11.214844 29.117188 11.414062 29.117188 C 11.609375 29.117188 11.765625 29.070312 11.882812 28.976562 C 12.007812 28.882812 12.101562 28.757812 12.164062 28.597656 C 12.230469 28.429688 12.273438 28.242188 12.292969 28.027344 C 12.316406 27.8125 12.332031 27.582031 12.332031 27.332031 C 12.332031 27.085938 12.316406 26.855469 12.292969 26.640625 C 12.273438 26.417969 12.230469 26.230469 12.164062 26.070312 C 12.101562 25.910156 12.011719 25.785156 11.890625 25.691406 C 11.773438 25.597656 11.613281 25.550781 11.414062 25.550781 C 11.214844 25.550781 11.058594 25.597656 10.9375 25.691406 C 10.820312 25.785156 10.726562 25.914062 10.660156 26.078125 C 10.597656 26.238281 10.554688 26.425781 10.527344 26.640625 C 10.511719 26.855469 10.5 27.085938 10.5 27.332031 M 9.332031 27.332031 C 9.332031 26.453125 9.515625 25.789062 9.882812 25.34375 C 10.25 24.890625 10.761719 24.667969 11.414062 24.667969 C 12.09375 24.667969 12.609375 24.890625 12.964844 25.34375 C 13.320312 25.789062 13.496094 26.453125 13.496094 27.332031 C 13.496094 28.214844 13.316406 28.878906 12.957031 29.332031 C 12.59375 29.777344 12.085938 30 11.425781 30 C 10.746094 30 10.226562 29.777344 9.867188 29.332031 C 9.511719 28.878906 9.332031 28.214844 9.332031 27.332031 "/>
<path d="M 15.402344 29.066406 C 15.433594 29.074219 15.46875 29.074219 15.503906 29.074219 C 15.542969 29.074219 15.578125 29.074219 15.609375 29.074219 C 15.871094 29.074219 16.085938 29.03125 16.261719 28.941406 C 16.441406 28.855469 16.585938 28.734375 16.691406 28.578125 C 16.804688 28.425781 16.878906 28.242188 16.925781 28.035156 C 16.972656 27.820312 17 27.585938 17 27.332031 C 17 27.113281 16.980469 26.898438 16.941406 26.6875 C 16.90625 26.480469 16.839844 26.296875 16.746094 26.136719 C 16.652344 25.976562 16.527344 25.851562 16.363281 25.757812 C 16.203125 25.65625 15.992188 25.609375 15.738281 25.609375 C 15.6875 25.609375 15.632812 25.609375 15.570312 25.617188 C 15.507812 25.617188 15.453125 25.621094 15.402344 25.632812 L 15.402344 29.066406 M 18.167969 27.332031 C 18.167969 27.804688 18.097656 28.210938 17.960938 28.546875 C 17.828125 28.878906 17.644531 29.148438 17.410156 29.355469 C 17.171875 29.566406 16.890625 29.71875 16.558594 29.816406 C 16.238281 29.910156 15.878906 29.957031 15.488281 29.957031 C 15.28125 29.957031 15.078125 29.949219 14.878906 29.925781 C 14.6875 29.910156 14.476562 29.878906 14.253906 29.835938 L 14.253906 24.847656 C 14.515625 24.796875 14.761719 24.765625 14.992188 24.75 C 15.222656 24.734375 15.4375 24.722656 15.636719 24.722656 C 16.015625 24.722656 16.359375 24.773438 16.671875 24.871094 C 16.988281 24.972656 17.257812 25.128906 17.476562 25.34375 C 17.691406 25.550781 17.859375 25.824219 17.980469 26.152344 C 18.105469 26.476562 18.167969 26.871094 18.167969 27.332031 "/>
<path d="M 22.667969 24.78125 L 22.667969 29.890625 L 21.519531 29.890625 L 21.519531 27.636719 L 19.988281 27.636719 L 19.988281 29.890625 L 18.839844 29.890625 L 18.839844 24.78125 L 19.988281 24.78125 L 19.988281 26.796875 L 21.519531 26.796875 L 21.519531 24.78125 L 22.667969 24.78125 "/>
</g>
</svg>
